X: 137
T: Shao shu
%%abc-version 2.0
%%abcx-abcm2ps-target-version 5.9.1 (29 Sep 2008)
%%abc-creator hum2abc beta
%%abcx-conversion-date 2013/10/02 07:52:29
%%abc-edited-by Helmut Schaffrath
%%humdrum-veritas 2699200878
%%humdrum-veritas-data 614631382
%%continueall 1
%%barnumbers 0
L: 1/8
M: 2/4
K: A
e2e2 [I:setbarnb 1]| 
e< ee2 | 
c2B c | 
B4 | 
B2B e | 
c B A F/ A/ | 
B4 | 
B/ e/ G e/ G3/ | 
E A A/ G/ F/ E/ | 
D E B, D | 
E A D C/ B,/ | 
A,> B,A,2 |]  



